X:235
T: ES WOLLT EIN MAEDCHEN WASSER HOLN
N: E0117B
O: Europa, Mitteleuropa, Deutschland, Franken
R: erzaehlendes Volks - Lied, Schalk -, Schelmen - Lied, Liebe
M: 6/8
L: 1/16
K: F
C2 | F4A2A2G2F2 | E4G2B4
G2 | A4c2c3BA2 | A6G4
FA | c4A2c4f2 | c4B2A4
B2 | A4F2c3BA2 | G6F4

@@@ Tune index: 3885
